svgs/materials/action/noise_aware.svg

<svg xmlns="http://www.w3.org/2000/svg" enable-background="new 0 0 24 24" height="24" viewBox="0 0 24 24" width="24"><g><rect fill="none" height="24" width="24"/></g><g><g><path d="M16,15h-2c0,0.55-0.45,1-1,1c-0.43,0-0.81-0.27-0.95-0.68c-0.15-0.44-0.4-1.08-0.93-1.61l-1.36-1.36 C9.28,11.87,9,11.19,9,10.5C9,9.12,10.12,8,11.5,8c1.21,0,2.22,0.86,2.45,2h2.02c-0.25-2.25-2.16-4-4.47-4C9.02,6,7,8.02,7,10.5 c0,1.22,0.49,2.41,1.35,3.27l1.36,1.36c0.17,0.17,0.31,0.44,0.44,0.82C10.56,17.17,11.71,18,13,18C14.65,18,16,16.65,16,15z"/><circle cx="13.5" cy="12.5" r="1.5"/><path d="M3.6,6.58l1.58,1.26c0.35-0.57,0.77-1.1,1.24-1.57L4.85,5.02C4.38,5.49,3.97,6.02,3.6,6.58z"/><path d="M9.46,4.42L8.59,2.61c-0.63,0.23-1.24,0.52-1.8,0.87l0.87,1.81C8.22,4.93,8.82,4.64,9.46,4.42z"/><path d="M4.49,9.26L2.53,8.81c-0.21,0.63-0.36,1.28-0.44,1.95l1.96,0.45C4.11,10.53,4.27,9.88,4.49,9.26z"/><path d="M20.4,6.58c-0.36-0.56-0.78-1.09-1.25-1.56l-1.58,1.26c0.48,0.47,0.89,0.99,1.24,1.57L20.4,6.58z"/><path d="M4.04,12.79l-1.96,0.45c0.08,0.67,0.23,1.33,0.44,1.95l1.97-0.45C4.27,14.12,4.11,13.47,4.04,12.79z"/><path d="M17.21,3.48c-0.57-0.35-1.17-0.64-1.8-0.87l-0.87,1.81c0.64,0.22,1.24,0.51,1.8,0.87L17.21,3.48z"/><path d="M13,4.07V2.05C12.67,2.02,12.34,2,12,2s-0.67,0.02-1,0.05v2.02C11.33,4.03,11.66,4,12,4S12.67,4.03,13,4.07z"/><path d="M11,19.93v2.02c0.33,0.03,0.66,0.05,1,0.05s0.67-0.02,1-0.05v-2.02C12.67,19.97,12.34,20,12,20S11.33,19.97,11,19.93z"/><path d="M19.51,14.74l1.97,0.45c0.21-0.63,0.36-1.28,0.44-1.95l-1.96-0.45C19.89,13.47,19.73,14.12,19.51,14.74z"/><path d="M19.96,11.21l1.96-0.45c-0.08-0.67-0.23-1.33-0.44-1.95l-1.97,0.45C19.73,9.88,19.89,10.53,19.96,11.21z"/><path d="M17.58,17.73l1.58,1.26c0.47-0.48,0.88-1,1.25-1.56l-1.58-1.26C18.47,16.73,18.05,17.26,17.58,17.73z"/><path d="M6.79,20.52c0.57,0.35,1.17,0.64,1.8,0.87l0.87-1.81c-0.64-0.22-1.24-0.51-1.8-0.87L6.79,20.52z"/><path d="M14.54,19.58l0.87,1.81c0.63-0.23,1.24-0.52,1.8-0.87l-0.87-1.81C15.78,19.07,15.18,19.36,14.54,19.58z"/><path d="M3.6,17.42c0.36,0.56,0.78,1.09,1.25,1.56l1.58-1.26c-0.48-0.47-0.89-0.99-1.24-1.57L3.6,17.42z"/></g></g></svg>

<?xml version="1.0" encoding="UTF-8" standalone="no"?>
<svg
   enable-background="new 0 0 24 24"
   height="24"
   viewBox="0 0 24 24"
   width="24"
   version="1.1"
   id="svg42"
   sodipodi:docname="noise_aware.svg"
   inkscape:version="1.2 (dc2aeda, 2022-05-15)"
   xmlns:inkscape="http://www.inkscape.org/namespaces/inkscape"
   xmlns:sodipodi="http://sodipodi.sourceforge.net/DTD/sodipodi-0.dtd"
   xmlns="http://www.w3.org/2000/svg"
   xmlns:svg="http://www.w3.org/2000/svg">
  <defs
     id="defs46" />
  <sodipodi:namedview
     id="namedview44"
     pagecolor="#ffffff"
     bordercolor="#000000"
     borderopacity="0.25"
     inkscape:showpageshadow="2"
     inkscape:pageopacity="0.0"
     inkscape:pagecheckerboard="0"
     inkscape:deskcolor="#d1d1d1"
     showgrid="false"
     inkscape:zoom="9.8333333"
     inkscape:cx="12.050847"
     inkscape:cy="12"
     inkscape:window-width="1309"
     inkscape:window-height="456"
     inkscape:window-x="0"
     inkscape:window-y="25"
     inkscape:window-maximized="0"
     inkscape:current-layer="svg42" />
  <path
     id="rect2"
     style="fill:none"
     d="M 0,0 H 24 V 24 H 0 Z" />
  <path
     d="m 16,15 h -2 c 0,0.55 -0.45,1 -1,1 -0.43,0 -0.81,-0.27 -0.95,-0.68 -0.15,-0.44 -0.4,-1.08 -0.93,-1.61 L 9.76,12.35 C 9.28,11.87 9,11.19 9,10.5 9,9.12 10.12,8 11.5,8 c 1.21,0 2.22,0.86 2.45,2 h 2.02 C 15.72,7.75 13.81,6 11.5,6 9.02,6 7,8.02 7,10.5 c 0,1.22 0.49,2.41 1.35,3.27 l 1.36,1.36 c 0.17,0.17 0.31,0.44 0.44,0.82 0.41,1.22 1.56,2.05 2.85,2.05 1.65,0 3,-1.35 3,-3 z"
     id="path6" />
  <path
     id="circle8"
     d="M 15,12.5 A 1.5,1.5 0 0 1 13.5,14 1.5,1.5 0 0 1 12,12.5 1.5,1.5 0 0 1 13.5,11 1.5,1.5 0 0 1 15,12.5 Z" />
  <path
     d="M 3.6,6.58 5.18,7.84 C 5.53,7.27 5.95,6.74 6.42,6.27 L 4.85,5.02 C 4.38,5.49 3.97,6.02 3.6,6.58 Z"
     id="path10" />
  <path
     d="M 9.46,4.42 8.59,2.61 C 7.96,2.84 7.35,3.13 6.79,3.48 L 7.66,5.29 C 8.22,4.93 8.82,4.64 9.46,4.42 Z"
     id="path12" />
  <path
     d="M 4.49,9.26 2.53,8.81 C 2.32,9.44 2.17,10.09 2.09,10.76 l 1.96,0.45 C 4.11,10.53 4.27,9.88 4.49,9.26 Z"
     id="path14" />
  <path
     d="M 20.4,6.58 C 20.04,6.02 19.62,5.49 19.15,5.02 l -1.58,1.26 c 0.48,0.47 0.89,0.99 1.24,1.57 z"
     id="path16" />
  <path
     d="m 4.04,12.79 -1.96,0.45 c 0.08,0.67 0.23,1.33 0.44,1.95 L 4.49,14.74 C 4.27,14.12 4.11,13.47 4.04,12.79 Z"
     id="path18" />
  <path
     d="M 17.21,3.48 C 16.64,3.13 16.04,2.84 15.41,2.61 l -0.87,1.81 c 0.64,0.22 1.24,0.51 1.8,0.87 z"
     id="path20" />
  <path
     d="M 13,4.07 V 2.05 C 12.67,2.02 12.34,2 12,2 11.66,2 11.33,2.02 11,2.05 V 4.07 C 11.33,4.03 11.66,4 12,4 c 0.34,0 0.67,0.03 1,0.07 z"
     id="path22" />
  <path
     d="m 11,19.93 v 2.02 c 0.33,0.03 0.66,0.05 1,0.05 0.34,0 0.67,-0.02 1,-0.05 V 19.93 C 12.67,19.97 12.34,20 12,20 11.66,20 11.33,19.97 11,19.93 Z"
     id="path24" />
  <path
     d="m 19.51,14.74 1.97,0.45 c 0.21,-0.63 0.36,-1.28 0.44,-1.95 l -1.96,-0.45 c -0.07,0.68 -0.23,1.33 -0.45,1.95 z"
     id="path26" />
  <path
     d="m 19.96,11.21 1.96,-0.45 C 21.84,10.09 21.69,9.43 21.48,8.81 l -1.97,0.45 c 0.22,0.62 0.38,1.27 0.45,1.95 z"
     id="path28" />
  <path
     d="m 17.58,17.73 1.58,1.26 c 0.47,-0.48 0.88,-1 1.25,-1.56 l -1.58,-1.26 c -0.36,0.56 -0.78,1.09 -1.25,1.56 z"
     id="path30" />
  <path
     d="m 6.79,20.52 c 0.57,0.35 1.17,0.64 1.8,0.87 L 9.46,19.58 C 8.82,19.36 8.22,19.07 7.66,18.71 Z"
     id="path32" />
  <path
     d="m 14.54,19.58 0.87,1.81 c 0.63,-0.23 1.24,-0.52 1.8,-0.87 l -0.87,-1.81 c -0.56,0.36 -1.16,0.65 -1.8,0.87 z"
     id="path34" />
  <path
     d="m 3.6,17.42 c 0.36,0.56 0.78,1.09 1.25,1.56 L 6.43,17.72 C 5.95,17.25 5.54,16.73 5.19,16.15 Z"
     id="path36" />
</svg>
